X:200
T: Hedgehog
S: "The Piper's Dream"
C: Pat McNulty
Z: B.Black
L: 1/8
M: 9/8
R: slip jig
K: D
dAF Adf ecA |dAF Adf e3 |fdB e2 c dAF |GEA GFE D3 |
dAF Adf ecA |dAF Adf e3 |fdB e2 c dAF |GEA cAc d3 :|
fdf afd a2 g |fga b2 g bge |cde gec g2 e |fda g2 e cBA |
fdf afd a2 g |fga b2 g bge |cde ged cBA |fdf gec d3 :|
